flaticon/symbols/capricorn.svg

<svg xmlns="http://www.w3.org/2000/svg" width="32" height="32" viewBox="0 0 24 24">
    <path d="M 12 0 C 5.382812 0 0 5.382812 0 12 C 0 18.617188 5.382812 24 12 24 C 18.617188 24 24 18.617188 24 12 C 24 5.382812 18.617188 0 12 0 Z M 12 23.171875 C 5.839844 23.171875 0.828125 18.160156 0.828125 12 C 0.828125 5.839844 5.839844 0.828125 12 0.828125 C 18.160156 0.828125 23.171875 5.839844 23.171875 12 C 23.171875 18.160156 18.160156 23.171875 12 23.171875 Z M 12 23.171875"/>
    <path d="M 16.964844 12.828125 C 16.15625 12.828125 15.421875 13.164062 14.898438 13.699219 L 14.898438 7.863281 C 14.898438 6.355469 13.679688 5.21875 12.070312 5.21875 C 10.980469 5.21875 10.050781 5.71875 9.535156 6.476562 C 9.050781 5.714844 8.164062 5.21875 7.105469 5.21875 C 5.441406 5.21875 4.136719 6.378906 4.136719 7.863281 C 4.136719 8.089844 4.324219 8.277344 4.550781 8.277344 C 4.78125 8.277344 4.964844 8.089844 4.964844 7.863281 C 4.964844 6.726562 6.050781 6.046875 7.105469 6.046875 C 8.261719 6.046875 9.101562 6.8125 9.101562 7.863281 L 9.101562 15.722656 C 9.101562 15.953125 9.289062 16.136719 9.515625 16.136719 C 9.746094 16.136719 9.929688 15.953125 9.929688 15.722656 L 9.929688 7.863281 C 9.929688 6.726562 11.019531 6.046875 12.070312 6.046875 C 13.226562 6.046875 14.070312 6.8125 14.070312 7.863281 L 14.070312 15.722656 C 14.070312 16.59375 13.707031 18.621094 10.34375 18.621094 C 10.117188 18.621094 9.929688 18.804688 9.929688 19.035156 C 9.929688 19.261719 10.117188 19.449219 10.34375 19.449219 C 12.699219 19.449219 13.988281 18.5 14.546875 17.316406 C 15.066406 18.101562 15.957031 18.621094 16.964844 18.621094 C 18.5625 18.621094 19.863281 17.320312 19.863281 15.722656 C 19.863281 14.128906 18.5625 12.828125 16.964844 12.828125 Z M 16.964844 17.792969 C 15.824219 17.792969 14.898438 16.863281 14.898438 15.722656 C 14.898438 14.582031 15.824219 13.65625 16.964844 13.65625 C 18.105469 13.65625 19.035156 14.582031 19.035156 15.722656 C 19.035156 16.863281 18.105469 17.792969 16.964844 17.792969 Z M 16.964844 17.792969"/>
</svg>

<svg xmlns="http://www.w3.org/2000/svg" width="32" height="32" viewBox="0 0 24 24">
    <path d="M12 0C5.383 0 0 5.383 0 12s5.383 12 12 12 12-5.383 12-12S18.617 0 12 0zm0 23.172C5.84 23.172.828 18.16.828 12 .828 5.84 5.84.828 12 .828 18.16.828 23.172 5.84 23.172 12c0 6.16-5.012 11.172-11.172 11.172zm0 0"/>
    <path d="M16.965 12.828c-.809 0-1.543.336-2.067.871V7.863c0-1.508-1.218-2.644-2.828-2.644-1.09 0-2.02.5-2.535 1.258-.484-.762-1.37-1.258-2.43-1.258-1.664 0-2.968 1.16-2.968 2.644a.414.414 0 0 0 .828 0c0-1.136 1.086-1.816 2.14-1.816 1.157 0 1.997.766 1.997 1.816v7.86a.414.414 0 0 0 .828 0v-7.86c0-1.136 1.09-1.816 2.14-1.816 1.157 0 2 .766 2 1.816v7.86c0 .87-.363 2.898-3.726 2.898a.414.414 0 0 0 0 .828c2.355 0 3.644-.949 4.203-2.133a2.9 2.9 0 0 0 2.418 1.305c1.598 0 2.898-1.3 2.898-2.898 0-1.594-1.3-2.895-2.898-2.895zm0 4.965a2.067 2.067 0 1 1 2.07-2.07c0 1.14-.93 2.07-2.07 2.07zm0 0"/>
</svg>
